!!!OTL: 50. Eia Popeia.
!!!COM: Volkslied
!!!ARE: Europa, Mitteleuropa, Deutschland, Thueringen
!!!SCT: K0050
!!!TXL: @@DE
!!!YEM: Copyright 1995, estate of Helmut Schaffrath.
**kern	**text
*clefG2	*
*M3/8	*
*k[f#]	*
*G:	*
=1	=1
{8.dd	Ei-
16ee	-a
8dd	po-
=2	=2
8b	-pei-
8a	-a.
8b	was
=3	=3
8g	raſ-
8f#	-ſelt
8g	im
=4	=4
4d	Stroh?
8d}	Die
=5	=5
{8.dd	Gäns-
16ee	-chen
8dd	ſind
=6	=6
8b	bar-
8a	-fuß
8b	und
=7	=7
8g	hab'n
8f#	kei-
8g	-ne
=8	=8
4d	Schuh.
8d}	Der
=9	=9
{8.g	Schu-
16f#	-ſter
8g	hat
=10	=10
8.a	Le-
16g	-der,
8a	kein'
=11	=11
8dd	Leiſten
8dd	.
8dd	da-
=12	=12
4a}	-ʒu
{8cc	was
=13	=13
8.b	woll'n
16a	wir
16g	mit
16g	den
=14	=14
4a	ar-
8d	-men
=15	=15
4g	Gänschen
8g	.
=16	=16
4.g;}	thun?
==	==
!!!AGN: Kinder -, Wiegen - Lied
!!!ONB: ESAC (Essen Associative Code) Database: KINDER
!!!AMT: simple triple
!!!AIN: vox
!!!EED: Helmut Schaffrath
!!!EEV: 1.0
!!Muendlich aus Thueringen (Stotternheim) 1858, auch anderwaerts gehoert.
!!!GTL: I. Wiegenlieder.
!!!URL-scan: https://archive.org/details/DeutschesKinderliedUndKinderspiel/page/11/mode/1up
!!!ENC: Anna Maria Matuszewska
!!!EEV: 2024/29/08
*-	*-
